resources/icons/16px/rain.svg

<svg width="16" height="16" viewBox="0 0 16 16" fill="none" xmlns="http://www.w3.org/2000/svg">
<path fill-rule="evenodd" clip-rule="evenodd" d="M3.5 8C2.11929 8 1 6.88071 1 5.5C1 4.11929 2.11929 3 3.5 3C3.70957 3 3.91312 3.02579 4.10764 3.07436C4.52529 1.31153 6.10948 0 8 0C9.49835 0 10.8043 0.82384 11.4895 2.04326C11.6554 2.01482 11.826 2 12 2C13.6569 2 15 3.34315 15 5C15 6.65685 13.6569 8 12 8H8H3.5ZM3 10C3 9.44772 3.44772 9 4 9C4.55228 9 5 9.44772 5 10V14C5 14.5523 4.55228 15 4 15C3.44772 15 3 14.5523 3 14V10ZM10 9C9.44771 9 9 9.44771 9 10V15C9 15.5523 9.44771 16 10 16C10.5523 16 11 15.5523 11 15V10C11 9.44772 10.5523 9 10 9ZM12 10C12 9.44771 12.4477 9 13 9C13.5523 9 14 9.44771 14 10V12C14 12.5523 13.5523 13 13 13C12.4477 13 12 12.5523 12 12V10ZM7 9C6.44772 9 6 9.44771 6 10V12C6 12.5523 6.44772 13 7 13C7.55228 13 8 12.5523 8 12V10C8 9.44771 7.55228 9 7 9Z" fill="#5C7080"/>
</svg>

<svg xmlns="http://www.w3.org/2000/svg" viewBox="0 0 16 16">
  <path d="M3.5 8a2.5 2.5 0 1 1 .608-4.926 4.002 4.002 0 0 1 7.382-1.03A3 3 0 1 1 12 8H3.5M3 10a1 1 0 0 1 2 0v4a1 1 0 1 1-2 0zm7-1a1 1 0 0 0-1 1v5a1 1 0 1 0 2 0v-5a1 1 0 0 0-1-1m2 1a1 1 0 1 1 2 0v2a1 1 0 1 1-2 0zM7 9a1 1 0 0 0-1 1v2a1 1 0 1 0 2 0v-2a1 1 0 0 0-1-1"/>
</svg>
